assets/img/braze_icons/dotpoints-02.svg

<svg fill="none" height="24" viewBox="0 0 24 24" width="24" xmlns="http://www.w3.org/2000/svg"><g fill="#801ed7"><path d="m4.5 2.5c-1.38071 0-2.5 1.11929-2.5 2.5s1.11929 2.5 2.5 2.5 2.5-1.11929 2.5-2.5-1.11929-2.5-2.5-2.5z"/><path d="m10 4h11c.5523 0 1 .44772 1 1 0 .55229-.4477 1-1 1h-11c-.55228 0-1-.44771-1-1 0-.55228.44772-1 1-1z"/><path d="m10 18h11c.5523 0 1 .4477 1 1s-.4477 1-1 1h-11c-.55228 0-1-.4477-1-1s.44772-1 1-1z"/><path d="m21 11h-11c-.55228 0-1 .4477-1 1s.44772 1 1 1h11c.5523 0 1-.4477 1-1s-.4477-1-1-1z"/><path d="m4.5 16.5c-1.38071 0-2.5 1.1193-2.5 2.5s1.11929 2.5 2.5 2.5 2.5-1.1193 2.5-2.5-1.11929-2.5-2.5-2.5z"/><path d="m4.5 9.5c-1.38071 0-2.5 1.1193-2.5 2.5s1.11929 2.5 2.5 2.5 2.5-1.1193 2.5-2.5-1.11929-2.5-2.5-2.5z"/></g></svg>

<svg width="24" height="24" viewBox="0 0 24 24" fill="none" xmlns="http://www.w3.org/2000/svg">
<path d="M4.5 2.5C3.11929 2.5 2 3.61929 2 5C2 6.38071 3.11929 7.5 4.5 7.5C5.88071 7.5 7 6.38071 7 5C7 3.61929 5.88071 2.5 4.5 2.5Z" fill="#801ED7"/>
<path d="M10 4L21 4C21.5523 4 22 4.44772 22 5C22 5.55229 21.5523 6 21 6H10C9.44772 6 9 5.55229 9 5C9 4.44772 9.44772 4 10 4Z" fill="#801ED7"/>
<path d="M10 18H21C21.5523 18 22 18.4477 22 19C22 19.5523 21.5523 20 21 20H10C9.44772 20 9 19.5523 9 19C9 18.4477 9.44772 18 10 18Z" fill="#801ED7"/>
<path d="M21 11H10C9.44772 11 9 11.4477 9 12C9 12.5523 9.44772 13 10 13H21C21.5523 13 22 12.5523 22 12C22 11.4477 21.5523 11 21 11Z" fill="#801ED7"/>
<path d="M4.5 16.5C3.11929 16.5 2 17.6193 2 19C2 20.3807 3.11929 21.5 4.5 21.5C5.88071 21.5 7 20.3807 7 19C7 17.6193 5.88071 16.5 4.5 16.5Z" fill="#801ED7"/>
<path d="M4.5 9.5C3.11929 9.5 2 10.6193 2 12C2 13.3807 3.11929 14.5 4.5 14.5C5.88071 14.5 7 13.3807 7 12C7 10.6193 5.88071 9.5 4.5 9.5Z" fill="#801ED7"/>
</svg>
